src/assets/img/unsorted/emotes/72.svg

<svg xmlns:xlink="http://www.w3.org/1999/xlink" height="100.8" width="132.65" xmlns="http://www.w3.org/2000/svg"><g transform="translate(77.75 73.55)"><use height="14" transform="translate(-12.25 -4.3)" width="24.45" xlink:href="#a"/><use height="14" transform="matrix(.75 0 0 .75 11.313 -14.063)" width="13.6" xlink:href="#b"/><use height="14" transform="translate(-25.25 -22.8)" width="13.6" xlink:href="#b"/><use height="14" transform="matrix(.75 0 0 .75 -20.038 -6.662)" width="13.6" xlink:href="#b"/></g><defs><use height="10.2" transform="translate(2.15 2.25) scale(.9375)" width="9.9" xlink:href="#c" id="b"/><use height="10.2" width="9.9" xlink:href="#d" id="c"/><path d="m3.9 4.3 3-4.3-1.05 4.95 4.05 3.3-4.8-1.4-1.9 3.35.2-4.1L0 3.8l3.9.5" fill="#fff" fill-rule="evenodd" id="d"/><g id="a"><path d="M8 4.85.95 9.2l-5.4-2.5L8 4.85" fill="#fff" fill-rule="evenodd" transform="translate(12.25 4.3)"/><path d="M8 4.85-4.45 6.7l5.4 2.5L8 4.85" fill="none" stroke="#333" stroke-linecap="round" stroke-linejoin="round" transform="translate(12.25 4.3)"/><path d="m9.4 5.7-2-1.8" fill="none" stroke="#666" stroke-linecap="round" stroke-linejoin="round" transform="translate(12.25 4.3)"/><path d="M.15-1.95H.4Q.5-.2 1.55 1.15q.75.95 1.8 1.3L.9 2.3h-3.7l1.3-1.1Q-.5 0-.35-1.65v-.3h.5m8.5 1.8q3.5 1.8 3.55 2.8 0 .95-3.15.4l-4.2-.5q1.3-.2 2.3-1.4l.9-1.6.6.3M-8-.4q.3.9.9 1.6.75.95 1.7 1.25l-2.75.4-4.1-.2q0-.95 3.7-2.75L-8-.4" fill="#6596cc" fill-opacity=".431" fill-rule="evenodd" transform="translate(12.25 4.3)"/><path d="M-.35-1.45v-.2l-.25-.4-2-1.1q-2.9-1.3-5.6 0l-.05.1-.05.25-.05.95.4 1.45.85 1.6q.8.95 1.75 1.25l1.05.2 1.55-.35q.7-.4 1.3-1.1.9-1.15 1.1-2.65" fill="#fff" fill-rule="evenodd" transform="translate(12.25 4.3)"/><path d="M-.35-1.65v.2m0 0q-.2 1.5-1.1 2.65-.6.7-1.3 1.1l-1.55.35-1.05-.2q-.95-.3-1.75-1.25l-.85-1.6-.4-1.45.05-.95.05-.25.05-.1" fill="none" stroke="#666" stroke-linecap="round" stroke-linejoin="round" transform="translate(12.25 4.3)"/><path d="m-.6-2.05.25.4Zm.4.6.2-1.2m-8.2-.5q2.7-1.3 5.6 0l2 1.1" fill="none" stroke="#000" stroke-linecap="round" stroke-linejoin="round" transform="translate(12.25 4.3)"/><path d="M-4.05-3.15q.4-.55.95-.5.55-.05.95.5.4.5.4 1.35 0 .75-.4 1.3-.4.5-.95.5-.55 0-.95-.5-.4-.55-.35-1.3-.05-.85.35-1.35m.65 1.55.3-.2.2-.45-.2-.5-.3-.15-.35.15-.15.5.15.45.35.2" fill-rule="evenodd" transform="translate(12.25 4.3)"/><path d="m-3.4-1.6-.35-.2-.15-.45.15-.5.35-.15.3.15.2.5-.2.45-.3.2m4.45-.45q.95-.6 2-1.1 2.9-1.3 5.6 0l.05.1.05.25.05.95L8.4-.4l-.85 1.6q-.8.95-1.75 1.25l-1.05.2L3.2 2.3 1.9 1.2Q1 .05.8-1.45v-.2l.25-.4" fill="#fff" fill-rule="evenodd" transform="translate(12.25 4.3)"/><path d="M.8-1.65v.2m0 0Q1 .05 1.9 1.2l1.3 1.1 1.55.35 1.05-.2q.95-.3 1.75-1.25L8.4-.4l.4-1.45-.05-.95-.05-.25-.05-.1" fill="none" stroke="#666" stroke-linecap="round" stroke-linejoin="round" transform="translate(12.25 4.3)"/><path d="m1.05-2.05-.25.4Zm-.4.6-.2-1.2m8.2-.5q-2.7-1.3-5.6 0-1.05.5-2 1.1" fill="none" stroke="#000" stroke-linecap="round" stroke-linejoin="round" transform="translate(12.25 4.3)"/><path d="m7.3-2.15-.15.4-.35.25q-.2-.05-.3-.25-.15-.15-.15-.4l.15-.5q.1-.2.3-.2l.35.2.15.5m-.8-1.4q-.55-.05-.95.45-.4.55-.4 1.35t.4 1.3q.4.55.95.55.55 0 .95-.55.4-.5.4-1.3t-.4-1.35q-.4-.5-.95-.45" fill-rule="evenodd" transform="translate(12.25 4.3)"/><path d="m7.3-2.15-.15-.5-.35-.2q-.2 0-.3.2l-.15.5q0 .25.15.4.1.2.3.25l.35-.25.15-.4" fill="#fff" fill-rule="evenodd" transform="translate(12.25 4.3)"/></g></defs></svg>

<?xml version="1.0" encoding="UTF-8" standalone="no"?>
<svg xmlns:xlink="http://www.w3.org/1999/xlink" height="100.8px" width="132.65px" xmlns="http://www.w3.org/2000/svg">
  <g transform="matrix(1.0, 0.0, 0.0, 1.0, 77.75, 73.55)">
    <use height="14.0" transform="matrix(1.0, 0.0, 0.0, 1.0, -12.25, -4.3)" width="24.45" xlink:href="#shape0"/>
    <use height="14.0" transform="matrix(0.75, 0.0, 0.0, 0.75, 11.3125, -14.0625)" width="13.6" xlink:href="#sprite0"/>
    <use height="14.0" transform="matrix(1.0, 0.0, 0.0, 1.0, -25.25, -22.8)" width="13.6" xlink:href="#sprite0"/>
    <use height="14.0" transform="matrix(0.75, 0.0, 0.0, 0.75, -20.0375, -6.6625)" width="13.6" xlink:href="#sprite0"/>
  </g>
  <defs>
    <g id="shape0" transform="matrix(1.0, 0.0, 0.0, 1.0, 12.25, 4.3)">
      <path d="M8.0 4.85 L0.95 9.2 -4.45 6.7 8.0 4.85" fill="#ffffff" fill-rule="evenodd" stroke="none"/>
      <path d="M8.0 4.85 L-4.45 6.7 0.95 9.2 8.0 4.85" fill="none" stroke="#333333" stroke-linecap="round" stroke-linejoin="round" stroke-width="1.0"/>
      <path d="M9.4 5.7 L7.4 3.9" fill="none" stroke="#666666" stroke-linecap="round" stroke-linejoin="round" stroke-width="1.0"/>
      <path d="M0.15 -1.95 L0.4 -1.95 Q0.5 -0.2 1.55 1.15 2.3 2.1 3.35 2.45 L0.9 2.3 -2.8 2.3 -1.5 1.2 Q-0.5 0.0 -0.35 -1.65 L-0.35 -1.95 -0.1 -1.95 0.15 -1.95 M8.65 -0.15 Q12.15 1.65 12.2 2.65 12.2 3.6 9.05 3.05 L4.85 2.55 Q6.15 2.35 7.15 1.15 L8.05 -0.45 8.65 -0.15 M-8.0 -0.4 Q-7.7 0.5 -7.1 1.2 -6.35 2.15 -5.4 2.45 L-8.15 2.85 -12.25 2.65 Q-12.25 1.7 -8.55 -0.1 L-8.0 -0.4" fill="#6596cc" fill-opacity="0.43137255" fill-rule="evenodd" stroke="none"/>
      <path d="M-0.35 -1.45 L-0.35 -1.65 -0.6 -2.05 -2.6 -3.15 Q-5.5 -4.45 -8.2 -3.15 L-8.25 -3.05 -8.3 -2.8 -8.35 -1.85 -7.95 -0.4 -7.1 1.2 Q-6.3 2.15 -5.35 2.45 L-4.3 2.65 -2.75 2.3 Q-2.05 1.9 -1.45 1.2 -0.55 0.05 -0.35 -1.45" fill="#ffffff" fill-rule="evenodd" stroke="none"/>
      <path d="M-0.35 -1.65 L-0.35 -1.45" fill="none" stroke="#666666" stroke-linecap="round" stroke-linejoin="round" stroke-width="1.0"/>
      <path d="M-0.35 -1.45 Q-0.55 0.05 -1.45 1.2 -2.05 1.9 -2.75 2.3 L-4.3 2.65 -5.35 2.45 Q-6.3 2.15 -7.1 1.2 L-7.95 -0.4 -8.35 -1.85 -8.3 -2.8 -8.25 -3.05 -8.2 -3.15" fill="none" stroke="#666666" stroke-linecap="round" stroke-linejoin="round" stroke-width="1.0"/>
      <path d="M-0.6 -2.05 L-0.35 -1.65 Z" fill="none" stroke="#000000" stroke-linecap="round" stroke-linejoin="round" stroke-width="1.0"/>
      <path d="M-0.2 -1.45 L0.0 -2.65 M-8.2 -3.15 Q-5.5 -4.45 -2.6 -3.15 L-0.6 -2.05" fill="none" stroke="#000000" stroke-linecap="round" stroke-linejoin="round" stroke-width="1.0"/>
      <path d="M-4.05 -3.15 Q-3.65 -3.7 -3.1 -3.65 -2.55 -3.7 -2.15 -3.15 -1.75 -2.65 -1.75 -1.8 -1.75 -1.05 -2.15 -0.5 -2.55 0.0 -3.1 0.0 -3.65 0.0 -4.05 -0.5 -4.45 -1.05 -4.4 -1.8 -4.45 -2.65 -4.05 -3.15 M-3.4 -1.6 L-3.1 -1.8 -2.9 -2.25 -3.1 -2.75 -3.4 -2.9 -3.75 -2.75 -3.9 -2.25 -3.75 -1.8 -3.4 -1.6" fill="#000000" fill-rule="evenodd" stroke="none"/>
      <path d="M-3.4 -1.6 L-3.75 -1.8 -3.9 -2.25 -3.75 -2.75 -3.4 -2.9 -3.1 -2.75 -2.9 -2.25 -3.1 -1.8 -3.4 -1.6" fill="#ffffff" fill-rule="evenodd" stroke="none"/>
      <path d="M1.05 -2.05 Q2.0 -2.65 3.05 -3.15 5.95 -4.45 8.65 -3.15 L8.7 -3.05 8.75 -2.8 8.8 -1.85 8.4 -0.4 7.55 1.2 Q6.75 2.15 5.8 2.45 L4.75 2.65 3.2 2.3 1.9 1.2 Q1.0 0.05 0.8 -1.45 L0.8 -1.65 1.05 -2.05" fill="#ffffff" fill-rule="evenodd" stroke="none"/>
      <path d="M0.8 -1.65 L0.8 -1.45" fill="none" stroke="#666666" stroke-linecap="round" stroke-linejoin="round" stroke-width="1.0"/>
      <path d="M0.8 -1.45 Q1.0 0.05 1.9 1.2 L3.2 2.3 4.75 2.65 5.8 2.45 Q6.75 2.15 7.55 1.2 L8.4 -0.4 8.8 -1.85 8.75 -2.8 8.7 -3.05 8.65 -3.15" fill="none" stroke="#666666" stroke-linecap="round" stroke-linejoin="round" stroke-width="1.0"/>
      <path d="M1.05 -2.05 L0.8 -1.65 Z" fill="none" stroke="#000000" stroke-linecap="round" stroke-linejoin="round" stroke-width="1.0"/>
      <path d="M0.65 -1.45 L0.45 -2.65 M8.65 -3.15 Q5.95 -4.45 3.05 -3.15 2.0 -2.65 1.05 -2.05" fill="none" stroke="#000000" stroke-linecap="round" stroke-linejoin="round" stroke-width="1.0"/>
      <path d="M7.3 -2.15 L7.15 -1.75 6.8 -1.5 Q6.6 -1.55 6.5 -1.75 6.35 -1.9 6.35 -2.15 L6.5 -2.65 Q6.6 -2.85 6.8 -2.85 L7.15 -2.65 7.3 -2.15 M6.5 -3.55 Q5.95 -3.6 5.55 -3.1 5.15 -2.55 5.15 -1.75 5.15 -0.95 5.55 -0.45 5.95 0.1 6.5 0.1 7.05 0.1 7.45 -0.45 7.85 -0.95 7.85 -1.75 7.85 -2.55 7.45 -3.1 7.05 -3.6 6.5 -3.55" fill="#000000" fill-rule="evenodd" stroke="none"/>
      <path d="M7.3 -2.15 L7.15 -2.65 6.8 -2.85 Q6.6 -2.85 6.5 -2.65 L6.35 -2.15 Q6.35 -1.9 6.5 -1.75 6.6 -1.55 6.8 -1.5 L7.15 -1.75 7.3 -2.15" fill="#ffffff" fill-rule="evenodd" stroke="none"/>
    </g>
    <g id="sprite0" transform="matrix(1.0, 0.0, 0.0, 1.0, 1.85, 1.95)">
      <use height="10.2" transform="matrix(0.9375, 0.0, 0.0, 0.9375, 0.3, 0.3)" width="9.9" xlink:href="#sprite1"/>
    </g>
    <g id="sprite1" transform="matrix(1.0, 0.0, 0.0, 1.0, 0.0, 0.0)">
      <use height="10.2" transform="matrix(1.0, 0.0, 0.0, 1.0, 0.0, 0.0)" width="9.9" xlink:href="#shape1"/>
    </g>
    <g id="shape1" transform="matrix(1.0, 0.0, 0.0, 1.0, 0.0, 0.0)">
      <path d="M3.9 4.3 L6.9 0.0 5.85 4.95 9.9 8.25 5.1 6.85 3.2 10.2 3.4 6.1 0.0 3.8 3.9 4.3" fill="#ffffff" fill-rule="evenodd" stroke="none"/>
    </g>
  </defs>
</svg>
